X:138
T:Wheels of the World
T:High Part of the Road, The
R:jig
Z:Transcribed by Dave Marshall
M:6/8
K:G
|: ~B3 ~c3|ded cAG|~F3 DED|DGG FGA|
~B3 ~c3|dcA d2e|fed cAF| AGF G3:|
|:~g3 def|g2a bag|~f3 dfg|afd cAG|
~g3 def|g2a bag|fed cAF| AGF G3:|
